assets/ai/ai-preregistered-de-tc-plus-square.svg

<svg xmlns="http://www.w3.org/2000/svg" width="100%" height="100%" viewBox="-75.52 -43.52 599.04 599.04"><path d="M 48 32 C 21.5 32 0 53.5 0 80 L 0 432 C 0 458.5 21.5 480 48 480 L 400 480 C 426.5 480 448 458.5 448 432 L 448 80 C 448 53.5 426.5 32 400 32 L 48 32 z M 224.0332 96 C 233.30268 96 242.6964 98.0422 249.75586 102.13672 L 344.41602 156.77734 C 358.53492 164.95411 370.13281 185.00635 370.13281 201.34766 L 370.13281 310.64453 C 370.13281 326.99197 358.53492 347.05177 344.41602 355.22852 L 249.75586 409.87695 C 242.6964 413.95918 233.30268 416 224.0332 416 C 214.7024 416 205.30865 413.95918 198.31055 409.87695 L 103.65039 355.22852 C 89.469866 347.05177 77.867188 326.99197 77.867188 310.64453 L 77.867188 201.34766 C 77.867188 185.00635 89.469866 164.95411 103.65039 156.77734 L 198.31055 102.13672 C 205.30865 98.0422 214.7024 96 224.0332 96 z M 277.76562 164.75977 C 268.26271 164.75977 260.64648 171.97963 260.64648 181.93945 C 260.64648 191.89926 268.26272 199.11719 277.76562 199.11719 C 284.71023 199.11719 290.61444 195.24832 293.35547 189.40039 L 285.31836 187.32227 C 283.97791 189.58225 280.93345 191.19141 277.76562 191.19141 C 272.649 191.19141 268.92773 187.65339 268.92773 181.93945 C 268.92773 176.5179 272.28353 172.59961 277.76562 172.59961 C 280.32425 172.59961 283.18384 173.77373 284.70703 175.66211 L 292.75 173.53516 C 289.82593 168.2537 284.28406 164.75977 277.76562 164.75977 z M 230.83008 165.10156 L 230.83008 172.2207 L 240.35742 172.2207 L 240.35742 196.875 L 248.00195 196.875 L 248.00195 172.2207 L 257.65234 172.2207 L 257.65234 165.10156 L 230.83008 165.10156 z M 157.05273 165.16406 L 157.05273 197.17578 L 171.03516 197.17578 C 180.19575 197.17578 187.60938 190.90935 187.60938 181.30273 C 187.60938 171.70209 180.19575 165.16406 171.03516 165.16406 L 157.05273 165.16406 z M 191.76562 165.41406 L 191.76562 197.18164 L 215.1543 197.18164 L 215.1543 190.06055 L 199.44141 190.06055 L 199.44141 184.42578 L 211.52344 184.42578 L 211.52344 177.75195 L 199.44141 177.75195 L 199.44141 172.5332 L 214.91016 172.5332 L 214.91016 165.41406 L 191.76562 165.41406 z M 164.71094 172.33789 L 171.03516 172.33789 C 175.61514 172.33789 179.59766 175.81231 179.59766 181.30273 C 179.59766 186.78706 175.61514 189.99414 171.03516 189.99414 L 164.71094 189.99414 L 164.71094 172.33789 z M 287.99609 214.17578 C 285.2729 214.17578 282.55339 215.20945 280.47852 217.28125 L 206.08984 291.65625 C 201.94008 295.79375 195.16342 295.79375 191.01367 291.65625 L 173.13867 273.76953 C 168.98861 269.61981 162.21028 269.61981 158.06055 273.76953 L 146.5293 285.27148 C 143.29513 288.53636 142.44058 296.1923 146.5293 300.33594 L 191.01367 344.79102 C 195.16342 348.92856 201.94008 348.92856 206.08984 344.79102 L 307.02734 243.84766 C 311.17707 239.70401 311.17707 232.93295 307.02734 228.7832 L 295.54883 217.28125 C 293.44359 215.20946 290.71931 214.17773 287.99609 214.17773 L 287.99609 214.17578 z M 292.11523 293.54688 L 292.11523 308.61523 L 277.39844 308.61523 L 277.39844 319.89844 L 292.17578 319.89844 L 292.17578 334.63281 L 304.20898 334.63281 L 304.20898 319.89844 L 318.92578 319.89844 L 318.92578 308.61719 L 304.08789 308.61719 L 304.08789 293.54688 L 292.11523 293.54688 z"/></svg>

<svg xmlns="http://www.w3.org/2000/svg" width="100%" height="100%" viewBox="-75.52 -43.52 599.04 599.04"><path d="M48 32C21.5 32 0 53.5 0 80v352c0 26.5 21.5 48 48 48h352c26.5 0 48-21.5 48-48V80c0-26.5-21.5-48-48-48H48zm176.033 64c9.27 0 18.663 2.042 25.723 6.137l94.66 54.64c14.119 8.177 25.717 28.23 25.717 44.57v109.298c0 16.347-11.598 36.407-25.717 44.584l-94.66 54.648c-7.06 4.082-16.453 6.123-25.723 6.123-9.33 0-18.724-2.04-25.722-6.123l-94.66-54.648c-14.181-8.177-25.784-28.237-25.784-44.584V201.348c0-16.342 11.603-36.394 25.783-44.57l94.66-54.641C205.31 98.042 214.703 96 224.034 96zm53.733 68.76c-9.503 0-17.12 7.22-17.12 17.18s7.617 17.177 17.12 17.177c6.944 0 12.848-3.869 15.59-9.717l-8.038-2.078c-1.34 2.26-4.385 3.87-7.552 3.87-5.117 0-8.838-3.539-8.838-9.253 0-5.421 3.356-9.34 8.838-9.34 2.558 0 5.418 1.175 6.941 3.063l8.043-2.127c-2.924-5.281-8.466-8.775-14.984-8.775zm-46.936.342v7.119h9.527v24.654h7.645v-24.654h9.65v-7.12H230.83zm-73.777.062v32.012h13.982c9.16 0 16.574-6.267 16.574-15.873 0-9.6-7.413-16.139-16.574-16.139h-13.982zm34.713.25v31.768h23.388v-7.121h-15.713v-5.635h12.082v-6.674h-12.082v-5.219h15.47v-7.119h-23.145zm-27.055 6.924h6.324c4.58 0 8.563 3.474 8.563 8.965 0 5.484-3.983 8.691-8.563 8.691h-6.324v-17.656zm123.285 41.838a10.6 10.6 0 00-7.517 3.105l-74.39 74.375c-4.149 4.138-10.926 4.138-15.075 0l-17.875-17.886c-4.15-4.15-10.929-4.15-15.078 0l-11.532 11.501c-3.234 3.265-4.088 10.921 0 15.065l44.485 44.455c4.15 4.138 10.926 4.138 15.076 0l100.937-100.943c4.15-4.144 4.15-10.915 0-15.065l-11.478-11.502a10.731 10.731 0 00-7.553-3.103v-.002zm4.12 79.37v15.07h-14.718v11.282h14.778v14.735h12.033v-14.735h14.717v-11.28h-14.838v-15.071h-11.973z"/></svg>
